!!!!SEGMENT: pl-wnifc--6854-n_kozlowski-jozef--polonaise-in-c.krn
!!!cenid: 18xx:3969
!!!COM: Kozłowski, Józef
!!!COM-rismID: pe30003850
!!!CDT: 1757-1831
!!!CNT: Polish
!!!OTL: Polonaise in c
!!!PDT:
!!!AGN:
!!!SMS-siglum: PL-Wnifc
!!!SMS-shelfmark: 6854/n
!!!SMS-shelfwork: W
!!!SMS-variant:
!!!SMS-altvar:
!!!NIFC-rismSourceID: 1001159811
!!!NIFC-rismChildID: 1001159818
!!!NIFC-islandoraID: nifc:214685
!!!URL-pdf-islandora: https://repozytorium.nifc.pl/islandora/object/nifc%3A214685/datastream/PDF/view
!!!URL-scan: https://polish.musicsources.pl/pl/lokalizacje/galeria/klocki-introligatorskie/689 @EN{Scan on Polish Music Sources Website} @PL{Skany w portalu Dziedzictwo Muzyki Polskiej w otwartym dostępie}
!!!ONB-nifc: UWAGA: skan 26
!!!AIN: 2 piano
!!!key: c
**kern	**kern	**dynam
*part2	*part1	*part1
*staff2	*staff1	*
*I"Piano Forte	*I"Piano Forte	*
*I'pf	*I'pf	*
*ICklav	*ICklav	*
*Ipiano	*Ipiano	*
*clefF4	*clefG2	*
*k[b-e-a-]	*k[b-e-a-]	*
*c:	*c:	*
*M3/4	*M3/4	*
=1	=1	=1
!!LO:TX:t=P:problem: nad poszczególnymi nutami dopisane palcowanie - ołówkiem, w późniejszym okresie niż druk	!	!
!	!LO:TX:a:t=Jmpitoyables dieux ...	!LO:DY:b:t=F
8.CC`/L 8.C	8.c`/L	f
(32GG/LL	(<32G/LL	.
64AAn/L	64An/L	.
64BBn/JJJJ)	64Bn/JJJJ)	.
8.C`/L	8.e-`/L	.
(32GG/LL	(32G/LL	.
64AA/L	64A/L	.
64BB/JJJJ)	64B/JJJJ)	.
8C`/L	8e-`/L	.
.	16qqe-/	.
8DD`/J 8D	(16d/L	.
.	32c/L	.
.	32d/JJJ)	.
=2	=2	=2
8EE-`/L 8E-	8.e-`/L	.
8EEn`/ 8En	.	.
.	16qqf/	.
.	(32en/LL	.
.	64d/L	.
.	64e/JJJJ)	.
8FF`/ 8F	8.f`/L	.
8FF#X`/J 8F#X	.	.
.	16qqg/	.
.	(32f#X/LL	.
.	64en/L	.
.	64f#/JJJJ)	.
8G`\L	4g`/	.
8GG`\J	.	.
=3	=3	=3
.	16qg/	.
!	!	!LO:DY:b:t=F
4C^<|\ 4E- 4G	16.gg`\LL	f >
.	(32dd\K	.
.	16.ee-\)	.
.	(32bn\JJk	.
8r	8cc\)	.
!	!	!LO:DY:b:t=P
8C\L 8E- 8G	(8g\L	] p
.	8qb-X/	.
8C\ 8E- 8G	8a-\	.
8C\J 8E- 8G	8g\J)	.
=4	=4	=4
.	16qqg/	.
!	!	!LO:DY:b:t=F
4C^<|\ 4E- 4G	16.gg\LL	f >
.	(32dd\K	.
.	16.ee-\)	.
.	(32bn\JJk	.
!	!	!LO:DY:b:t=P
8r	16cc\LL	] p <
.	16g\)	.
8C\L 8E- 8G	(16g\	.
.	16cc\JJ)	.
8C\ 8E- 8G	(16cc\LL	.
.	16ee-\)	.
8C\J 8E- 8G	(16ee-\	.
.	16gg\JJ)	[[
=5	=5	=5
.	(16qqdd/LL	.
!	!	!LO:DY:b:t=F
!	!	!LO:HP:a
.	16qqff/JJ	f >
(16BBn\LL	4.aa-\)	.
16A-\	.	.
16F\	.	.
16A-\JJ	.	.
16BB\LL	.	.
16A-\	.	.
16F\	8aa-\	]
16A-\JJ)	.	.
.	16qqaa-/	.
16BB\LL	8gg`\L	.
16G\	.	.
16F\	8ff`\J	.
16G\JJ	.	.
!!LO:LB:g=original	!	!
=6	=6	=6
(16BBn\LL	8ff`\	.
16G\	.	.
16F\	4dd^\ 4ff	.
16G\JJ	.	.
16BB\LL	.	.
16G\	.	.
16D\	(16gg\LL	.
16G\JJ	16ff\JJ)	.
16C\LL	8ee-`\L	.
16G\	.	.
16BBn\	8dd`\J	.
16G\JJ)	.	.
=7	=7	=7
.	16qqg/	.
!	!	!LO:DY:b:t=F
4C^<|\ 4E- 4G	16.gg\LL	f >
.	(32dd\K	.
.	16.ee-\)	.
.	(32bn\JJk	.
!	!	!LO:DY:b:t=P
8r	8cc\)	] p
8C\L 8E- 8G	(8g\L	.
.	16qqb-X/	.
8C\ 8E- 8G	8a-\	.
8C\J 8E- 8G	8g\J)	.
=8	=8	=8
.	16qqg/	.
!	!	!LO:DY:b:t=F
4C^<|\ 4E- 4G	16.gg`\LL	f >
.	(32dd\K	.
.	16.ee-\)	.
.	(32bn\JJk	.
8r	16cc\LL)	.
!	!	!LO:DY:b:t=P
.	16g`\	] p
8C\L 8E- 8G	(16g\	<
.	16cc\JJ)	.
8C\ 8E- 8G	(16cc\LL	.
.	16ee-\)	.
8C\J 8E- 8G	(16ee-\	.
.	16gg\JJ)	[[
=9	=9	=9
!	!	!LO:DY:b:t=F
(16BBn\LL	8dd\	f
16A-\	.	.
16F\	4dd^\ 4ff 4aa-	>
16A-\JJ	.	.
16BB\LL	.	.
16A-\	.	.
16F\	(>8aa-\L	.
16A-\JJ	.	.
16BB\LL	8gg\	.
16G\	.	.
16F\	8ff\J)	.
16G\JJ)	.	.
=10	=10	=10
(16BB-\LL	8ff`\	.
16G\	.	.
16F\	4dd`\ 4ff	.
16G\JJ	.	.
16BB-\LL	.	.
16G\	.	.
16D\	(16gg\LL	.
16G\JJ	16ff\JJ)	.
16C\LL	8ee-`\L	.
16G\	.	.
16BBn\	8dd`\J	]]
16G\JJ)	.	.
=11	=11	=11
!	!	!LO:DY:b:t=F
4C`/	(16ee-\LL	f
.	16ccc\JJ)	.
.	4cc^<\ 4ee- 4ccc	.
8C`\L 8c	.	.
8BB-X`\J 8B-X	(32ccc\LLL	.
.	32bbn\	.
.	32ccc\	.
.	32ddd\JJJ)	.
4AA-X^\ 4A-X	8eee-\L	.
.	8cc`\J 8ee-X 8ff#X	.
!!LO:LB:g=original	!	!
=12	=12	=12
8GG\ 8G	8bn\L 8dd 8gg	<
8r	16g`\L 16gg	.
.	16g`\JJ 16gg	.
4r	8g`\L 8gg	.
.	8g`\ 8gg	.
4r	8g`\ 8gg	.
.	8g`\J 8gg	.
=13	=13	=13
*^	*	*
*	*	*	*^
!	!	!	!LO:DY:b:t=F	!LO:DY:b=2
!	!	!	!	!LO:DY:b:t=F
2.G/	(>8C\L 8E-	[>4g\ [4gg	[ f	f
.	8D\ 8F	.	.	.
.	8E-\ 8G	16g\LL] 16gg]	>	.
.	.	16dd`\	.	.
.	8D\ 8F	(16dd\	.	.
.	.	16ee-\JJ)	.	.
.	8E-\ 8G	(16ee-\LL	.	.
.	.	16bn\)	.	.
.	8D\J) 8F	(16b\	.	.
.	.	16cc\JJ)	]]	.
*	*	*	*v	*v
=14	=14	=14	=14
2.G/	(>8C\L 8E-	(16cc\LL	<
.	.	16ee-\)	.
.	8BBn\ 8D	(16dd\	.
.	.	16ff\JJ)	.
.	8C\ 8E-	(16ee-\LL	.
.	.	16cc\)	.
.	8BB\ 8D	(16dd\	.
.	.	16ff\JJ)	.
.	8C\ 8E-	(16ee-\LL	.
.	.	16gg\)	.
.	8D\J) 8F	(16ff\	.
.	.	16aa-X\JJ)	[[
=15	=15	=15	=15
*	*	*	*^
!	!	!	!LO:DY:b:t=F	!LO:DY:b=2
!	!	!	!	!LO:DY:b:t=F
2.G/	(>8C\L 8E-	4g\ [4gg	f	f
.	8D\ 8F	.	.	.
.	8E-\ 8G	16g\LL 16gg]	>	.
.	.	16dd`\	.	.
.	8D\ 8F	(16dd\	.	.
.	.	16ee-\JJ)	.	.
.	8E-\ 8G	(16ee-\LL	.	.
.	.	16bn\)	.	.
.	8D\J) 8F	(16b\	.	.
.	.	16cc\JJ)	.	.
*	*	*	*v	*v
=16	=16	=16	=16
2.G/	(>8C\L 8E-	(16cc\LL	] <
.	.	16ee-\)	.
.	8BBn\ 8D	(16dd\	.
.	.	16ff\JJ)	.
.	8C\ 8E-	(16ee-\LL	.
.	.	16cc\)	.
.	8BB\ 8D	(16dd\	.
.	.	16ff\JJ)	.
.	8C\ 8E-	(16ee-\LL	.
.	.	16gg\)	.
.	8D\J) 8F	(16ff\	.
.	.	16aa-X\JJ)	[[
=17	=17	=17	=17
!	!	!LO:TX:b:t=poco à poco	!
8G`/	8C`\ 8E-	(16gg\LL	.
.	.	16ee-\)	.
(8BBn\L 8D 8F 8A-	2ryy	(16ff\	.
.	.	16aa-\JJ)	.
8C\J) 8E- 8G	.	(16gg\LL	.
.	.	16ee-\)	.
(8BB\L 8D 8F 8A-	.	(16ff\	.
.	.	16aa-\JJ)	.
!	!	!	!LO:DY:b:t=F
8C\J) 8E- 8G	.	(16gg\LL	f
.	.	16ee-\)	.
(8BB`\ 8D 8F 8A-	8ryy	(16ff\	.
.	.	16aa-\JJ)	.
*v	*v	*	*
!!LO:LB:g=original	!	!
=18	=18	=18
*	*	*^
!	!	!LO:DY:b:t=P	!
8C\) 8E- 8G	(16gg\LL	p >	.
.	16aa-\)	.	.
!	!	!	!LO:HP:b=2
8B-X`\L 8d	(16aa-\	.	>
.	16gg\JJ)	.	.
8A-X`\ 8c	(16gg\LL	.	.
.	16ff\)	.	.
8G`\ 8B-	(16ff\	.	.
.	16ee-\JJ)	.	.
8F`\ 8A-	(16ee-\LL	.	.
.	16dd\)	.	.
8E-`\J 8G	(16dd\	.	]
.	16cc\JJ)	]]	.
*	*	*v	*v
=19	=19	=19
16F\LL	8dd-X`\	.
16d-X\	.	.
16A-X\	4dd-^\	.
16d-\JJ	.	.
8F`\	.	.
(16B-\LL	8eensS\L	<
16d-X\JJ	.	.
16A-X\LL	8ff\	.
16c\	.	.
16G\	8gg\J	[[
16B-\JJ)	.	.
=20	=20	=20
(16F\LL	8aa-X\	.
16A-\	.	.
16F\	4a-`\ 4aa-	>
16A-\JJ	.	.
16F\LL	.	.
16A-\	.	.
16F\	(8ff\L	]
16A-\JJ	.	.
16F\LL	8ee-X\	.
16A-\	.	.
16F\	8dd-X\J)	.
16A-\JJ)	.	.
=21	=21	=21
.	16qqdd/	.
!	!	!LO:DY:b:t=F
(16G\LL	8cc`\L	f
16e-\	.	.
16c\	8cc`\J	.
16e-\JJ)	.	.
(16G\LL	(32cc\LLL	.
.	32bn\J)	.
16e-\	16cc`\	.
16c\	16ee-`\JJ	.
16e-\JJ)	(8.gg^\L	.
4G^<\ 4dn 4f	.	.
.	8b\J)	.
=22	=22	=22
!	!LO:TX:t=P:problem:przekreślony obiegnik	!
8G`\L 8c 8e-	8ccsS\L	.
8F`\J 8d 8f	16ee-`\L	.
.	16ddn`\JJ	.
8r	(4b-\ 4dd	.
(8G\L 8d 8f	.	.
8c\J) 8e-	8cc\)	.
8r	8r	.
!!LO:PB:g=original	!	!
=23:|!	=23:|!	=23:|!
*clefF4	*clefG2	*
*k[b-e-a-]	*k[b-e-a-]	*
*M3/4	*M3/4	*
!	!LO:TX:a:t=tu l`entends . . . cette  nuit`...Julia dans le temple ..	!
!	!LO:TX:b:i:t=dolce	!
!	!LO:TX:b:i:t=espressivo	!
!	!LO:TX:a:B:t=TRIO\nd`un Scene\nde la Vestale	!
.	8qqe-/	.
*^	*	*
!	!	!	!LO:DY:b:t=P
16E-/LL	(2E-\	(2ee-^\	p
16G/	.	.	.
16B-/	.	.	.
16G/JJ	.	.	.
16B-/LL	.	.	.
16G/	.	.	.
16B-/	.	.	.
16G/JJ)	.	.	.
8E-`/L	4ryy	8b-X\L)	.
8G`/J	.	16r	.
.	.	16b-`\Jk	.
=24	=24	=24	=24
.	.	8qqe-/	.
16E-/LL	(2E-\	(2ee-^\	.
16G/	.	.	.
16B-/	.	.	.
16G/JJ	.	.	.
16B-/LL	.	.	.
16G/	.	.	.
16B-/	.	.	.
16G/JJ)	.	.	.
8E-`/L	4ryy	8b-\L)	.
8G`/J	.	16r	.
.	.	16b-`\Jk	.
=25	=25	=25	=25
.	.	8qqb-/	.
16E-/LL	(2E-\	4.gg^\	.
16G/	.	.	.
16B-/	.	.	.
16G/JJ	.	.	.
16B-/LL	.	.	.
16G/	.	.	.
16B-/	.	16aa-`\LL	.
16G/JJ)	.	16bb-`\JJ	.
8E-`/L	4ryy	(16aa-\LL	.
.	.	16gg\)	.
8G`/J	.	16ff`\	.
.	.	16ee-`\JJ	.
=26	=26	=26	=26
16BB-/LL	(2BB-\	4dd\ 4ff [4aa-	>
16F/	.	.	.
16A-/	.	.	.
16F/JJ	.	.	.
16A-/LL	.	(16dd\LL 16ff 16aa-]	.
16F/	.	16gg\)	.
16A-/	.	16aa-`\	]
16F/JJ)	.	16ff`\JJ	.
8BB-`/L	4ryy	8dd`\L	.
8D`/J	.	16r	.
.	.	16dd`\Jk	.
=27	=27	=27	=27
16E-/LL	(2E-\	(4.ee-\	>
16G/	.	.	.
16B-/	.	.	.
16G/JJ	.	.	.
16B-/LL	.	.	.
16G/	.	.	.
16B-/	.	16dd\LL	]
16G/JJ)	.	16ee-\JJ)	.
8E-`/L	4ryy	8b-`\L	.
8G`/J	.	16r	.
.	.	16b-`\Jk	.
=28	=28	=28	=28
16E-/LL	(2E-\	(4.b-\ 4.gg	>
16G/	.	.	.
16B-/	.	.	.
16G/JJ	.	.	.
16B-/LL	.	.	.
16G/	.	.	.
16B-/	.	16ff#X\LL	]
16G/JJ)	.	16gg\JJ)	.
8E-`/L	4ryy	8ee-`\L	.
8G`/J	.	16ree	.
.	.	16ee-`\Jk	.
!!LO:LB:g=original	!	!	!
=29	=29	=29	=29
.	.	16qaan/	.
!	!	!LO:TX:t=P:problem: 4 zapisane ołówkiem	!
!	!	!LO:TX:a:t=4:color=grey	!
16BB-/LL	(2BB-\	8bb-\	.
16F/	.	.	.
!	!	!LO:TX:t=P:problem: 3 zapisane ołówkiem	!
!	!	!LO:TX:a:t=3:color=grey	!
16A-/	.	4bb-^\	.
16F/JJ	.	.	.
8A-/)	.	.	.
8r	.	(16ddd\LL	.
.	.	16ccc\JJ	.
4BB-^\ 4F 4A-	4ryy	16bb-\LL	.
.	.	16aany\	.
.	.	16gg\	.
.	.	16ff\JJ)	.
*v	*v	*	*
=30	=30	=30
(8BB-\L 8E- 8G	(16ee-\LL	.
.	16dd\	.
8BB-\J) 8F 8A-	16gg\)	.
.	16ff`\JJ	.
8r	(4dd\ 4ff	.
(8BB-\L 8F 8A-	.	.
8E-\J) 8G	8ee-\)	.
8r	8r	.
=31:|!	=31:|!	=31:|!
*^	*	*
!	!	!LO:TX:a:i:t=espressivo	!
16BB-/LL	(2BB-\	(2f^<:\ 2a-X: 2dd:	.
16D/	.	.	.
16F/	.	.	.
16D/JJ	.	.	.
16F/LL	.	.	.
16D/	.	.	.
16F/	.	.	.
16D/JJ)	.	.	.
!	!	!LO:TX:t=P:problem: 2 zapisane ołówkiem	!
!	!	!LO:TX:a:t=2:color=grey	!
8BB-`/L	4ryy	8a-/L)	.
8D`/J	.	16r	.
!	!	!LO:TX:t=P:problem: 1 zapisane ołówkiem	!
!	!	!LO:TX:a:t=1:color=grey	!
.	.	16a-`/Jk	.
=32	=32	=32	=32
16BB-/LL	2BB-\	(2a-^<:\ 2dd: 2ff:	.
16D/	.	.	.
16F/	.	.	.
16D/JJ	.	.	.
16F/LL	.	.	.
16D/	.	.	.
16F/	.	.	.
16D/JJ	.	.	.
!	!	!LO:TX:t=P:problem: 3 zapisane ołówkiem	!
!	!	!LO:TX:a:t=3:color=grey	!
8BB-`/L	4ryy	8dd\L)	.
8D`/J	.	16r	.
!	!	!LO:TX:t=P:problem: 1 zapisane ołówkiem	!
!	!	!LO:TX:a:t=1:color=grey	!
.	.	16dd`\Jk	.
=33	=33	=33	=33
!	!	!LO:TX:t=P:problem: 3 zapisane ołówkiem i przekreślone	!
!	!	!LO:TX:a:t=[[3]] :color=grey	!
16BB-/LL	(2BB-\	8aa-`\	.
16D/	.	.	.
16F/	.	4dd^\ 4ff 4aa-	.
16D/JJ	.	.	.
16F/LL	.	.	.
16D/	.	.	.
16F/	.	16bb-`\LL	.
16D/JJ)	.	16ccc`\JJ	.
8BB-`/L	4ryy	(16bb-\LL	.
.	.	16aa-\)	.
8D`/J	.	16gg`\	.
.	.	16ff`\JJ	.
=34	=34	=34	=34
16E-/LL	(2E-\	(8.ff#X\L	>
16G/	.	.	.
16B-/	.	.	.
16G/JJ	.	16gg\Jk)	.
16B-/LL	.	4.gg\	]
16G/	.	.	.
16B-/	.	.	.
16G/JJ)	.	.	.
8E-`/L	4ryy	.	.
8G`/J	.	8r	.
=35	=35	=35	=35
!	!	!	!LO:DY:b:t=Fp
16BB-/LL	(2BB-\	8f/ 8a-X 8dd	fp
16D/	.	.	.
16F/	.	4f^/ 4a- 4dd	.
16D/JJ	.	.	.
16F/LL	.	.	.
16D/	.	.	.
!	!	!LO:TUP:b:problem:klamra łukowa	!
!	!	!LO:TX:t=P:problem: 4 zapisane ołówkiem	!
!	!	!LO:TX:a:t=4:color=grey	!
16F/	.	24ee-/LL	.
!	!	!LO:TX:t=P:problem: 3 zapisane ołówkiem	!
!	!	!LO:TX:a:t=3:color=grey	!
.	.	24dd/	.
16D/JJ)	.	.	.
!	!	!LO:TX:t=P:problem: 1 zapisane ołówkiem	!
!	!	!LO:TX:a:t=1:color=grey	!
.	.	24cc/JJ	.
!	!	!LO:TX:t=P:problem: 2 zapisane ołówkiem	!
!	!	!LO:TX:a:t=2:color=grey	!
8BB-`/L	4ryy	8b-/L	.
8D`/J	.	16r	.
.	.	16dd`/Jk	.
!!LO:LB:g=original	!	!	!
=36	=36	=36	=36
!	!	!	!LO:DY:b:t=Fp
16BB-/LL	(2BB-\	8b-`\ 8dd 8ffn	fp
16D/	.	.	.
16F/	.	4b-^\ 4dd 4ff	.
16D/JJ	.	.	.
16F/LL	.	.	.
16D/	.	.	.
!	!	!LO:TUP:a:problem:klamra łukowa	!
!	!	!LO:TX:t=P:problem: 4 zapisane ołówkiem	!
!	!	!LO:TX:a:t=4:color=grey	!
16F/	.	24gg\LL	.
.	.	24ff\	.
16D/JJ)	.	.	.
.	.	24ee-\JJ	.
8BB-`/L	4ryy	8dd\L	.
8D`/J	.	16r	.
.	.	16ff`\Jk	.
=37	=37	=37	=37
!	!	!	!LO:DY:b:t=Fp
16BB-/LL	(2BB-\	8aa-`\L	fp
16D/	.	.	.
16F/	.	8.dd^\J 8.ff 8.aa-	<
16D/JJ	.	.	.
16F/LL	.	.	.
!	!	!LO:TX:t=P:problem: 3 zapisane ołówkiem	!
!	!	!LO:TX:a:t=3:color=grey	!
16D/	.	(16bb-\LL	.
16F/	.	16bbn\	.
16D/JJ)	.	16ccc\JJ	.
8BB-`/L	4ryy	16bb-X\LL	.
.	.	16aa-X\	.
8D`/J	.	16gg\	.
.	.	16ff\JJ)	[[
=38	=38	=38	=38
16E-/LL	(2E-\	(8.ff#X\L	.
16G/	.	.	.
16B-/	.	.	.
16G/JJ	.	16gg\Jk)	.
.	.	(32qqff#/LLL	.
.	.	32qqgg/	.
.	.	32qqaa-/JJJ	.
16B-/LL	.	4gg\)	.
16G/	.	.	.
16B-/	.	.	.
16G/JJ)	.	.	.
8E-`/L	4ryy	8.r	.
8G`/J	.	.	.
.	.	16b-X/	.
=39	=39	=39	=39
.	.	16qqe-/	.
16E-/LL	(2E-\	(2ee-^\	.
16G/	.	.	.
16B-/	.	.	.
16G/JJ	.	.	.
16B-/LL	.	.	.
16G/	.	.	.
16B-/	.	.	.
16G/JJ)	.	.	.
8E-`/L	4ryy	8b-\L)	.
8G`/J	.	16r	.
!	!	!LO:TX:t=P:problem: 1 zapisane ołówkiem	!
.	.	16b-`\Jk	.
=40	=40	=40	=40
.	.	16qqe-/	.
16E-/LL	(2E-\	(2ee-^\	.
16G/	.	.	.
16B-/	.	.	.
16G/JJ	.	.	.
16B-/LL	.	.	.
16G/	.	.	.
16B-/	.	.	.
16G/JJ)	.	.	.
8E-`/L	4ryy	8b-\L)	.
8G`/J	.	16r	.
!	!	!LO:TX:t=P:problem: 1 zapisane ołówkiem	!
!	!	!LO:TX:a:t=1:color=grey	!
.	.	16b-`\Jk	.
=41	=41	=41	=41
.	.	8qff#X/	.
!	!	!LO:TX:t=P:problem: 4 zapisane ołówkiem	!
!	!	!LO:TX:a:t=4:color=grey	!
16E-/LL	(2E-\	8gg\	.
16G/	.	.	.
!	!	!LO:TX:t=P:problem: 2 zapisane ołówkiem	!
!	!	!LO:TX:a:t=2:color=grey	!
16B-/	.	4gg^<\	.
16G/JJ	.	.	.
16B-/LL	.	.	.
16G/	.	.	.
16B-/	.	16aa-`\LL	.
16G/JJ)	.	16bb-`\JJ	.
8E-`/L	4ryy	(16aa-\LL	.
.	.	16gg\)	.
8G`/J	.	16ffn`\	.
.	.	16ee-`\JJ	.
!!LO:LB:g=original	!	!	!
=42	=42	=42	=42
16BB-/LL	(2BB-\	(4dd\ 4ff 4aa-	>
16F/	.	.	.
16A-/	.	.	.
16F/JJ	.	.	.
16A-/LL	.	16dd\LL 16ff 16aa-	.
16F/	.	16gg\)	]
16A-/	.	16aa-`\	.
16F/JJ)	.	16ff`\JJ	.
8BB-`/L	4ryy	8dd`\L	.
8D`/J	.	16r	.
.	.	16b-`\Jk	.
=43	=43	=43	=43
!	!	!	!LO:DY:b:t=F
16E-/LL	(2E-\	8g`\ 8b- 8ee-	f
16G/	.	.	.
16B-/	.	4g^\ 4b- 4ee-	.
16G/JJ	.	.	.
16B-/LL	.	.	.
16G/	.	.	.
!	!	!LO:TX:t=P:problem: 4 zapisane ołówkiem	!
!	!	!LO:TX:a:t=4:color=grey	!
16B-/	.	(32ff\LLL	.
.	.	32ee-\	.
16G/JJ)	.	32dd\	.
.	.	32ee-\JJJ)	.
8E-`/L	4ryy	8b-\L	.
8G`/J	.	16r	.
.	.	16b-`\Jk	.
=44	=44	=44	=44
16E-/LL	(2E-\	8b-`\ 8ee- 8gg	.
16G/	.	.	.
16B-/	.	4b-^\ 4ee- 4gg	.
16G/JJ	.	.	.
16B-/LL	.	.	.
16G/	.	.	.
16B-/	.	(32aa-X\LLL	.
.	.	32gg\	.
16G/JJ)	.	32ff#X\	.
.	.	32gg\JJJ)	.
8E-`/L	4ryy	8ee-\L	.
8G`/J	.	16r	.
.	.	16gg\Jk	.
=45	=45	=45	=45
!	!	!	!LO:DY:b:t=F
.	.	16qaan/	f
16BB-/LL	(2BB-\	8bb-`\L	.
16F/	.	.	.
16A-/	.	8.bb-^\J	.
16F/JJ	.	.	.
8A-/)	.	.	.
!	!	!LO:TX:t=P:problem:przekreślony obiegnik	!
.	.	(16bb-sS\LL	>
8r	.	16ddd\	.
.	.	16ccc\JJ	.
4A-^</	4BB-\ 4F	16bb-\LL	.
.	.	16aa-X\	.
.	.	16gg\	.
.	.	16ffn\JJ)	.
*v	*v	*	*
=46	=46	=46
(8BB-\L 8E- 8G	(16ee-\LL	.
.	16dd\	.
8BB-\J) 8F 8A-	16.gg\)	.
.	32ff`\JJk	]
8r	(4dd\ 4ff	>
(8BB-\L 8F 8A-	.	.
8E-\J) 8G	8ee-\)	.
!LO:TX:b:B:t=Polon&colon;  Da Capo	!	!
8r	8r	]
==	==	==
*-	*-	*-
!!!system-decoration: {(s1,s2)}
!!!RDF**kern: | = vertical stroke
!!!RDF**kern: > = above
!!!RDF**kern: < = below
!!!ENC: Filip Voros
!!!END: 2022-08-04
!!!ENC: Natalia Wrzos
!!!END: 2022-09-12
!!!YEC: Copyright 2022 Narodowy Instytut Fryderyka Chopina (https://polishscores.org)
!!!YEM: License CC-BY-4.0 (https://creativecommons.org/licenses/by/4.0)
